!!!OTL: In einem k&uuml;hlen Grunde (1-12), S. 31
!!!id: K0088
**kern
*clefG2
*k[f#]
*G:
{8d
=1
4b
8b
8b
8a
8b
=2
4cc
4a
8f#}
=3
{8d
=4
4g
8g
8a
8g
8a
=5
2b}
8r
=6
{8b
=7
8b
8a
8a
8a
8b
8cc
=8
4.dd
4e}
=9
{8a
=10
4g
8g
8a
8g
8a
=11
2b}
8r
=12
{8b
=13
8b
8a
8a
8a
8b
8cc
=14
4dd
8gg
8ee
8cc}
=15
{8a
=16
4g
8d
4b
8a
=17
2g}
8r
==
*-
!!!minrhy: 8
!!!meters: 6/8 ]  ZZ[6
!!!cut: In einem k&uuml;hlen Grunde (1-12), S. 31
!!!reg: Luxemburg
!!!trd: KINTZELE, Guillaume: An der Ucht, Bd. 1, Luxemburg 1926
!!!rhy1: X  X_XXXX  X_X_X
!!!rhy2: X  X_XXXX  X__0
!!!key: K0088  08  G 6/8 ]  ZZ[6
!!!mod: HEPTATONIK IONISCH]  AMBITUS[11
!!!kad: -73-6341
!!!akz: 3342_1233_325-6_1233_3256_1311_
!!!fot: 'a__b__c__bv_cw_d__
!!!for: 'a__aw_b__aw_c__d__
!!!fok: '^a_/__^d_/__^a_\__
!! PHRAS[AUFTAKTIG]
!!!fkt: Liebe, Treue-Untreue
!!!bem: in der Quelle mit einer 2. Stimme versehen
!! KINTZELE
!! PR[36] 2K[3] 2G[3] 3K[9] 3G[5] 4A[2] 4Ü[0] 5A[3] 6K[0] 6G[2]
!! 7K[0] 7G[0] 8A[0] MEHR[0] SI[28] ABS[58] SR[7] SP[21]
!! ST[18] 2k[9] 2g[19] 3k[2] 3g[0] 4d[2] 4ü[0] 5d[5] 6k[0] 6g[0]
!! 7k[0] 7g[0] 8d[0] mehr[0] si[36] dm[-8] sr[28] sp[9]
!! 1F[32] 2F[58] 3F[5] 4F[0] LF[0] 2P[5] 3P[0] 4P[0] TRI[0] DF[4] AB[59]
!! TF[0] U3K[0] U3[2] U4[0] U4Ü[0] U5[24] U6K[0] U6[0] U7K[0] U7[5]
!! N1[3] N2K[0] N2[12] N3K[0] N3[19] N4[12] N4Ü[0] N5[20] N6K[0] N6[3]
!!!n7k: 0] N7[0] O1[0] O2K[0] O2[0] O3K[0] O3[0] HÖ[0
!!!RNB: symbol: &uuml;  = u umlaut (UTF-8: Ã¼)
